resources/svg/regular/list-minus.svg

<svg xmlns="http://www.w3.org/2000/svg" fill="currentColor" stroke="none" viewBox="0 0 24 24"><path d="M21.063 15L14.78 15 13 15 13 17 14.78 17 21.063 17 22 17 22 15zM4 7H15V9H4zM4 11H15V13H4zM4 15H11V17H4z"/></svg>

<svg xmlns="http://www.w3.org/2000/svg" fill="currentColor" stroke="none" viewBox="0 0 24 24"><path d="M21.063 15H13v2h9v-2zM4 7h11v2H4zm0 4h11v2H4zm0 4h7v2H4z"/></svg>
